; generated by Slic3r 1.3.0 on 2024-02-07 at 21:08:05

; external perimeters extrusion width = 0.55mm (7.28mm^3/s)
; perimeters extrusion width = 0.70mm (11.44mm^3/s)
; infill extrusion width = 0.63mm (13.45mm^3/s)
; solid infill extrusion width = 0.70mm (3.81mm^3/s)
; top infill extrusion width = 0.70mm (2.86mm^3/s)

M107
M104 S200 ; set temperature
G28 ; home all axes
G1 Z5 F5000 ; lift nozzle

; Filament gcode

M109 S200 ; set temperature and wait for it to be reached
G21 ; set units to millimeters
G90 ; use absolute coordinates
M82 ; use absolute distances for extrusion
G92 E0
G1 Z0.350 F7800.000
G1 E-2.00000 F2400.00000
G92 E0
G1 X88.585 Y53.006 F7800.000
G1 E2.00000 F2400.00000
G1 F1446.5
G1 X91.105 Y50.824 E2.09261
G1 X92.252 Y50.260 E2.12810
G1 X93.514 Y49.794 E2.16547
G1 X93.720 Y49.742 E2.17138
G1 X95.291 Y49.551 E2.21534
G1 X104.491 Y49.551 E2.47089
G1 X106.062 Y49.742 E2.51485
G1 X106.268 Y49.794 E2.52076
G1 X107.530 Y50.260 E2.55813
G1 X108.677 Y50.824 E2.59361
G1 X110.519 Y52.171 E2.65701
G1 X112.139 Y55.085 E2.74963
G1 X112.206 Y55.349 E2.75718
G1 X112.370 Y56.237 E2.78226
G1 X112.416 Y56.856 E2.79950
G1 X112.395 Y57.654 E2.82169
G1 X110.929 Y77.506 E3.37463
G1 X110.578 Y79.191 E3.42245
G1 X109.830 Y80.724 E3.46983
G1 X109.778 Y80.802 E3.47244
G1 X108.206 Y82.457 E3.53584
G1 X106.288 Y83.436 E3.59564
G1 X104.747 Y83.924 E3.64056
G1 X102.762 Y84.231 E3.69633
G1 X97.014 Y84.228 E3.85600
G1 X95.037 Y83.922 E3.91159
G1 X93.495 Y83.434 E3.95650
G1 X91.473 Y82.378 E4.01990
G1 X90.001 Y80.795 E4.07994
G1 X89.204 Y79.188 E4.12977
G1 X88.855 Y77.506 E4.17747
G1 X87.377 Y57.494 E4.73487
G1 X87.366 Y56.856 E4.75261
G1 X87.406 Y56.299 E4.76812
G1 X87.576 Y55.349 E4.79493
G1 X87.643 Y55.085 E4.80249
G1 X88.554 Y53.075 E4.86380
G1 E2.86380 F2400.00000
G92 E0
G1 X95.882 Y60.071 F7800.000
G1 E2.00000 F2400.00000
G1 F1800
G1 X95.347 Y60.075 E2.01256
G1 X95.245 Y60.565 E2.02434
G1 X95.007 Y60.428 E2.03082
G1 X94.792 Y60.389 E2.03595
G1 X94.725 Y60.288 E2.03880
G1 X94.636 Y60.056 E2.04464
G1 X94.551 Y59.584 E2.05591
G1 X94.574 Y59.494 E2.05810
G1 X94.694 Y60.110 E2.07284
G1 X95.175 Y59.260 E2.09580
G1 X95.167 Y59.105 E2.09944
G1 X95.185 Y59.023 E2.10141
G1 X95.247 Y58.950 E2.10366
G1 X95.281 Y58.994 E2.10495
G1 X95.295 Y59.089 E2.10721
G1 X95.276 Y59.243 E2.11086
G1 X95.505 Y59.993 E2.12929
G1 X95.989 Y59.433 E2.14668
G1 X96.006 Y59.303 E2.14976
G1 X96.077 Y59.115 E2.15450
G1 X96.121 Y59.075 E2.15589
G1 X96.151 Y59.138 E2.15753
G1 X96.128 Y59.342 E2.16235
G1 X96.064 Y59.480 E2.16593
G1 X96.113 Y59.883 E2.17548
G1 X96.448 Y60.221 E2.18667
G1 X96.573 Y60.181 E2.18975
G1 X96.869 Y60.169 E2.19671
G1 X96.929 Y60.175 E2.19814
G1 X97.013 Y60.254 E2.20085
G1 X96.977 Y60.300 E2.20221
G1 X96.884 Y60.347 E2.20465
G1 X96.792 Y60.354 E2.20683
G1 X96.422 Y60.233 E2.21599
G1 X96.236 Y60.310 E2.22071
G1 X96.130 Y60.326 E2.22322
G1 X95.948 Y60.412 E2.22795
G1 X95.896 Y60.144 E2.23437
G1 X95.752 Y59.588 F7800.000
G1 X94.544 Y59.345 F7800.000
G1 F1800
G1 X94.503 Y59.300 E2.23580
G1 X94.495 Y59.210 E2.23794
G1 X94.433 Y59.068 E2.24158
G1 X94.413 Y58.920 E2.24510
G1 X94.433 Y58.912 E2.24562
G1 X94.487 Y58.927 E2.24694
G1 X94.524 Y59.083 E2.25071
G1 X94.510 Y59.171 E2.25280
G1 X94.530 Y59.271 E2.25521
G1 X94.544 Y59.345 F7800.000
G1 E0.25521 F2400.00000
G92 E0
G1 X103.669 Y59.883 F7800.000
G1 E2.00000 F2400.00000
G1 F1800
G1 X103.718 Y59.480 E2.00955
G1 X103.654 Y59.342 E2.01313
G1 X103.631 Y59.138 E2.01795
G1 X103.661 Y59.075 E2.01958
G1 X103.705 Y59.115 E2.02098
G1 X103.776 Y59.303 E2.02572
G1 X103.793 Y59.433 E2.02880
G1 X104.277 Y59.993 E2.04619
G1 X104.506 Y59.243 E2.06461
G1 X104.487 Y59.089 E2.06827
G1 X104.501 Y58.994 E2.07053
G1 X104.535 Y58.950 E2.07182
G1 X104.597 Y59.023 E2.07407
G1 X104.615 Y59.105 E2.07604
G1 X104.608 Y59.259 E2.07968
G1 X105.088 Y60.110 E2.10263
G1 X105.209 Y59.494 E2.11738
G1 X105.231 Y59.584 E2.11957
G1 X105.146 Y60.056 E2.13084
G1 X105.057 Y60.288 E2.13668
G1 X104.990 Y60.389 E2.13953
G1 X104.775 Y60.428 E2.14466
G1 X104.537 Y60.565 E2.15114
G1 X104.435 Y60.075 E2.16292
G1 X103.901 Y60.071 E2.17548
G1 X103.834 Y60.412 E2.18366
G1 X103.652 Y60.326 E2.18839
G1 X103.546 Y60.310 E2.19090
G1 X103.360 Y60.233 E2.19563
G1 X102.990 Y60.354 E2.20478
G1 X102.898 Y60.347 E2.20696
G1 X102.806 Y60.300 E2.20940
G1 X102.769 Y60.254 E2.21076
G1 X102.853 Y60.175 E2.21347
G1 X102.914 Y60.169 E2.21490
G1 X103.209 Y60.181 E2.22186
G1 X103.334 Y60.221 E2.22494
G1 X103.616 Y59.936 E2.23437
G1 X104.072 Y59.838 F7800.000
G1 X105.238 Y59.345 F7800.000
G1 F1800
G1 X105.272 Y59.170 E2.23855
G1 X105.262 Y59.044 E2.24154
G1 X105.297 Y58.925 E2.24445
G1 X105.350 Y58.911 E2.24574
G1 X105.370 Y58.919 E2.24624
G1 X105.349 Y59.068 E2.24979
G1 X105.287 Y59.210 E2.25343
G1 X105.280 Y59.286 E2.25524
G1 X105.238 Y59.345 F7800.000
G1 Z0.650 F7800.000
G1 E0.25524 F2400.00000
G92 E0
G1 X96.231 Y82.120 F7800.000
G1 E2.00000 F2400.00000

G1 F3600
G1 X96.541 Y80.351 E2.04989
G1 X96.599 Y80.102 E2.05698
G1 X96.696 Y79.932 E2.06242
G1 X96.627 Y79.815 E2.06620
G1 X96.638 Y79.379 E2.07830
G1 X96.674 Y78.909 E2.09142
G1 X96.734 Y78.466 E2.10381
G1 X96.807 Y78.145 E2.11296
G1 X96.807 Y77.845 E2.12131

G1 F1151.28
G1 X96.784 Y77.697 E2.12438
G1 X96.791 Y77.448 E2.12953
G1 X96.859 Y77.061 E2.13763
G1 X97.063 Y77.094 E2.14190
G1 X97.131 Y76.968 E2.14486
G1 X97.177 Y77.160 E2.14893
G1 X97.255 Y77.158 E2.15054
G1 X97.201 Y77.656 E2.16087
G1 X97.142 Y77.894 E2.16594

G1 F3600
G1 X97.070 Y78.181 E2.17415
G1 X96.923 Y79.085 E2.19958
G1 X96.707 Y80.078 E2.22782
G1 X96.673 Y80.948 E2.25200
G1 X96.606 Y81.610 E2.27049
G1 X96.474 Y82.042 E2.28302
G1 X96.371 Y82.194 E2.28813
G1 X96.313 Y82.343 E2.29257
G1 X96.241 Y82.426 E2.29562
G1 X96.225 Y82.212 E2.30158
G1 X95.667 Y82.166 E2.31711
G1 X95.482 Y82.973 E2.34012
G1 X95.348 Y83.319 E2.35042
G1 X95.285 Y83.390 E2.35307
G1 X94.591 Y83.388 E2.37236
G1 X94.512 Y83.290 E2.37585
G1 X94.367 Y82.895 E2.38752
G1 X94.359 Y82.396 E2.40140
G1 X95.424 Y82.558 E2.43133
G1 X95.204 Y82.062 E2.44641
G1 X95.255 Y81.719 E2.45603
G1 X95.334 Y81.414 E2.46479
G1 X95.542 Y79.912 E2.50690
G1 X95.635 Y81.512 E2.55142
G1 X95.610 Y81.697 E2.55660
G1 X95.683 Y82.122 E2.56858
G1 X96.156 Y82.120 E2.58170

G1 E0.58170 F2400.00000
G92 E0
G1 X95.798 Y76.389 F7800.000
G1 E2.00000 F2400.00000
G1 F1151.28
G1 X95.798 Y76.912 E2.01077
G1 X95.763 Y77.290 E2.01860
G1 X95.716 Y77.480 E2.02263

G1 F3600
G1 X95.679 Y78.390 E2.04794
G1 X95.535 Y79.497 E2.07894
G1 X95.519 Y79.480 E2.07960
G1 X95.510 Y78.449 E2.10823
G1 X95.566 Y77.744 E2.12788
G1 X95.562 Y77.459 E2.13581

G1 F1151.28
G1 X95.535 Y77.339 E2.13833
G1 X95.525 Y77.141 E2.14242
G1 X95.547 Y76.448 E2.15673
G1 X95.566 Y76.420 E2.15742
G1 X95.723 Y76.390 E2.16071
G1 X95.567 Y76.833 F7800.000
G1 E0.16071 F2400.00000
G92 E0
G1 X94.399 Y80.696 F7800.000
G1 E2.00000 F2400.00000

G1 F3600
G1 X94.467 Y80.874 E2.00531
G1 X94.535 Y81.316 E2.01773
G1 X94.544 Y81.620 E2.02616
G1 X94.501 Y81.834 E2.03224
G1 X94.504 Y81.921 E2.03464
G1 X94.357 Y82.279 E2.04541
G1 X94.356 Y82.195 E2.04775
G1 X94.291 Y81.975 E2.05412
G1 X94.250 Y81.921 E2.05601
G1 X94.233 Y81.630 E2.06410
G1 X94.267 Y81.284 E2.07376
G1 X94.334 Y80.895 E2.08471
G1 X94.376 Y80.767 E2.08846

G1 E0.08846 F2400.00000
G92 E0
G1 X97.680 Y81.695 F7800.000
G1 E2.00000 F2400.00000

G1 F3600
G1 X97.744 Y81.524 E2.00506
G1 X97.965 Y81.201 E2.01592
G1 X98.145 Y81.076 E2.02202
G1 X98.229 Y81.096 E2.02442
G1 X98.229 Y81.148 E2.02587
G1 X97.949 Y81.544 E2.03933
G1 X97.704 Y81.789 E2.04897
G1 X97.689 Y81.767 E2.04970

G1 E0.04970 F2400.00000
G92 E0
G1 X101.552 Y81.095 F7800.000
G1 E2.00000 F2400.00000

G1 F3600
G1 X101.639 Y81.076 E2.00249
G1 X101.817 Y81.200 E2.00852
G1 X102.038 Y81.524 E2.01940
G1 X102.101 Y81.694 E2.02445
G1 X102.085 Y81.785 E2.02702
G1 X101.832 Y81.544 E2.03671
G1 X101.565 Y81.166 E2.04957

G1 E0.04957 F2400.00000
G92 E0
G1 X103.552 Y82.120 F7800.000
G1 E2.00000 F2400.00000

G1 F3600
G1 X104.099 Y82.122 E2.01520
G1 X104.172 Y81.698 E2.02717
G1 X104.147 Y81.512 E2.03236
G1 X104.241 Y79.910 E2.07694
G1 X104.448 Y81.413 E2.11906
G1 X104.528 Y81.719 E2.12786
G1 X104.578 Y82.062 E2.13747
G1 X104.358 Y82.557 E2.15255
G1 X105.423 Y82.396 E2.18249
G1 X105.415 Y82.896 E2.19640
G1 X105.270 Y83.290 E2.20804
G1 X105.192 Y83.387 E2.21153
G1 X104.497 Y83.390 E2.23082
G1 X104.434 Y83.319 E2.23347
G1 X104.300 Y82.973 E2.24377
G1 X104.115 Y82.165 E2.26679
G1 X103.557 Y82.212 E2.28232
G1 X103.541 Y82.426 E2.28828
G1 X103.468 Y82.343 E2.29135
G1 X103.411 Y82.194 E2.29577
G1 X103.308 Y82.041 E2.30089
G1 X103.175 Y81.610 E2.31342
G1 X103.109 Y80.948 E2.33191
G1 X103.075 Y80.079 E2.35606
G1 X102.858 Y79.086 E2.38430
G1 X102.711 Y78.183 E2.40972
G1 X102.640 Y77.897 E2.41791

G1 F1151.28
G1 X102.581 Y77.659 E2.42295
G1 X102.526 Y77.159 E2.43332
G1 X102.604 Y77.161 E2.43492
G1 X102.650 Y76.966 E2.43906
G1 X102.719 Y77.094 E2.44206
G1 X102.923 Y77.061 E2.44633
G1 X102.991 Y77.449 E2.45445
G1 X102.999 Y77.698 E2.45958
G1 X102.975 Y77.847 E2.46269

G1 F3600
G1 X102.975 Y78.146 E2.47099
G1 X103.048 Y78.466 E2.48012
G1 X103.108 Y78.908 E2.49252
G1 X103.144 Y79.379 E2.50563
G1 X103.155 Y79.815 E2.51774
G1 X103.086 Y79.932 E2.52151
G1 X103.183 Y80.102 E2.52695
G1 X103.241 Y80.350 E2.53401
G1 X103.539 Y82.046 E2.58186

G1 E0.58186 F2400.00000
G92 E0
G1 X103.984 Y76.389 F7800.000
G1 E2.00000 F2400.00000
G1 F1151.28
G1 X104.217 Y76.420 E2.00485
G1 X104.235 Y76.447 E2.00552
G1 X104.258 Y77.143 E2.01988
G1 X104.247 Y77.340 E2.02394
G1 X104.221 Y77.460 E2.02647

G1 F3600
G1 X104.216 Y77.745 E2.03439
G1 X104.273 Y78.449 E2.05402
G1 X104.264 Y79.481 E2.08266
G1 X104.247 Y79.498 E2.08332
G1 X104.103 Y78.391 E2.11433
G1 X104.066 Y77.481 E2.13961

G1 F1151.28
G1 X104.019 Y77.291 E2.14365
G1 X103.982 Y76.870 E2.15236
G1 X103.984 Y76.464 E2.16072
G1 X104.050 Y76.427 F7800.000
G1 E0.16072 F2400.00000
G92 E0
G1 X105.382 Y80.697 F7800.000
G1 E2.00000 F2400.00000

G1 F3600
G1 X105.463 Y80.971 E2.00793
G1 X105.550 Y81.634 E2.02650
G1 X105.532 Y81.920 E2.03448
G1 X105.492 Y81.975 E2.03637
G1 X105.427 Y82.195 E2.04274
G1 X105.425 Y82.279 E2.04507
G1 X105.278 Y81.920 E2.05585
G1 X105.281 Y81.834 E2.05824
G1 X105.238 Y81.619 E2.06433
G1 X105.247 Y81.317 E2.07273
G1 X105.315 Y80.874 E2.08517
G1 X105.355 Y80.767 E2.08836

G1 X105.456 Y79.865 F7800.000

G1 F3600
G1 X105.552 Y78.991 E2.11280
G1 X105.592 Y78.841 E2.11710
G1 X105.603 Y78.986 E2.12112
G1 X105.565 Y79.402 E2.13272
G1 X105.485 Y79.796 E2.14391

G1 X105.638 Y78.287 F7800.000

G1 F3600
G1 X105.503 Y77.930 E2.15450
G1 X105.458 Y77.605 E2.16362
G1 X105.464 Y77.174 E2.17562
G1 X105.644 Y77.223 E2.18080
G1 X105.690 Y77.313 E2.18362
G1 X105.714 Y77.720 E2.19495
G1 X105.655 Y78.214 E2.20876

G1 E0.20876 F2400.00000
G92 E0
G1 X94.291 Y79.546 F7800.000
G1 E2.00000 F2400.00000

G1 F3600
G1 X94.326 Y79.865 E2.00891
G1 X94.294 Y79.787 E2.01122
G1 X94.217 Y79.402 E2.02215
G1 X94.180 Y78.986 E2.03375
G1 X94.191 Y78.843 E2.03773
G1 X94.230 Y78.991 E2.04198
G1 X94.283 Y79.471 E2.05540

G1 X94.145 Y78.286 F7800.000

G1 F3600
G1 X94.103 Y78.100 E2.06070
G1 X94.069 Y77.718 E2.07136
G1 X94.093 Y77.314 E2.08260
G1 X94.142 Y77.218 E2.08559
G1 X94.313 Y77.167 E2.09054
G1 X94.324 Y77.605 E2.10270
G1 X94.279 Y77.930 E2.11181
G1 X94.173 Y78.220 E2.12039

G1 E0.12039 F2400.00000
G92 E0
G1 X95.281 Y60.412 F7800.000
G1 E2.00000 F2400.00000
G1 F600
G1 X95.824 Y60.027 E2.01797
G1 X95.977 Y60.291 E2.02622
G1 X96.032 Y60.323 E2.02793
G1 X95.608 Y60.692 E2.04310
G1 X95.146 Y60.678 E2.05557
G1 X95.071 Y60.111 E2.07100
G1 X94.966 Y59.677 E2.08307
G1 X95.252 Y60.343 E2.10263
G1 X95.531 Y59.547 F7800.000
G1 F1151.28
G1 X95.937 Y59.259 E2.11291
G1 X96.055 Y58.995 E2.11886
G1 X96.199 Y58.508 E2.12932

G1 F3600
G1 X96.244 Y58.357 E2.13371
G1 X96.402 Y57.334 E2.16246

G1 F1151.28
G1 X96.428 Y57.159 E2.16611
G1 X96.411 Y57.060 E2.16817
G1 X96.448 Y56.698 E2.17568
G1 X96.586 Y56.765 E2.17883
G1 X96.622 Y56.586 E2.18262
G1 X96.620 Y56.669 E2.18434
G1 X96.530 Y57.081 E2.19302
G1 X96.454 Y57.345 E2.19869

G1 F3600
G1 X96.399 Y57.745 E2.20990
G1 X96.280 Y58.363 E2.22739
G1 X96.268 Y58.532 E2.23209

G1 F1151.28
G1 X96.209 Y59.379 E2.24959
G1 X96.242 Y59.631 E2.25483
G1 X96.386 Y59.879 E2.26073
G1 X96.673 Y60.041 E2.26754
G1 X96.967 Y59.950 E2.27388
G1 X97.469 Y59.643 E2.28601
G1 X97.674 Y59.781 E2.29110
G1 X97.406 Y60.104 E2.29973
G1 X97.220 Y60.270 E2.30487
G1 X96.993 Y60.411 E2.31037
G1 X96.821 Y60.485 E2.31423
G1 X96.518 Y60.660 E2.32146
G1 X96.291 Y60.832 E2.32732

G1 F3600
G1 X95.920 Y61.165 E2.34117
G1 X95.787 Y61.256 E2.34565
G1 X95.711 Y61.279 E2.34785
G1 X95.653 Y61.254 E2.34961
G1 X95.326 Y61.245 E2.35870
G1 X95.269 Y61.409 E2.36353
G1 X95.225 Y61.445 E2.36509
G1 X95.159 Y61.459 E2.36698
G1 X94.942 Y61.438 E2.37303
G1 X94.754 Y61.348 E2.37884
G1 X94.693 Y61.284 E2.38129
G1 X94.646 Y61.177 E2.38451
G1 X94.606 Y60.874 E2.39300

G1 F1151.28
G1 X94.519 Y60.214 E2.40673
G1 X94.330 Y59.433 E2.42330
G1 X94.313 Y59.194 E2.42824
G1 X94.357 Y58.561 E2.44132
G1 X94.448 Y58.720 E2.44509
G1 X94.599 Y59.142 E2.45433
G1 X95.092 Y59.105 E2.46452
G1 X95.221 Y58.393 E2.47943

G1 F3600
G1 X95.234 Y58.318 E2.48156
G1 X95.245 Y58.394 E2.48371

G1 F1151.28
G1 X95.341 Y59.087 E2.49812
G1 X95.502 Y59.478 E2.50684
G1 X95.766 Y59.987 F7800.000
G1 E0.50684 F2400.00000
G92 E0
G1 X94.166 Y57.347 F7800.000
G1 E2.00000 F2400.00000
G1 F600
G1 X94.110 Y57.204 E2.00317
G1 X94.057 Y56.933 E2.00886
G1 X94.166 Y56.940 E2.01110
G1 X94.161 Y56.848 E2.01300
G1 X94.230 Y56.841 E2.01444
G1 X94.215 Y57.175 E2.02134
G1 X94.192 Y57.277 E2.02349
G1 X94.166 Y57.347 F7800.000
G1 X95.299 Y56.167 F7800.000
G1 F1151.28
G1 X95.313 Y56.247 E2.02516
G1 X95.414 Y56.261 E2.02724
G1 X95.344 Y56.693 E2.03626
G1 X95.283 Y56.804 E2.03888
G1 X95.274 Y56.977 E2.04245

G1 F3600
G1 X95.256 Y57.356 E2.05298
G1 X95.261 Y56.976 E2.06356

G1 F1151.28
G1 X95.262 Y56.829 E2.06658
G1 X95.217 Y56.725 E2.06892
G1 X95.175 Y56.282 E2.07808
G1 X95.280 Y56.258 E2.08030
G1 X95.283 Y56.241 E2.08065
G1 X95.287 Y56.247 F7800.000
G1 E0.08065 F2400.00000
G92 E0
G1 X104.502 Y60.412 F7800.000
G1 E2.00000 F2400.00000
G1 F600
G1 X104.816 Y59.677 E2.02159
G1 X104.711 Y60.111 E2.03365
G1 X104.636 Y60.678 E2.04909
G1 X104.174 Y60.692 E2.06155
G1 X103.750 Y60.323 E2.07672
G1 X103.805 Y60.291 E2.07843
G1 X103.958 Y60.027 E2.08668
G1 X104.441 Y60.369 E2.10263
G1 X104.252 Y59.547 F7800.000
G1 F1151.28
G1 X104.441 Y59.087 E2.11289
G1 X104.537 Y58.394 E2.12730

G1 F3600
G1 X104.549 Y58.313 E2.12958
G1 X104.563 Y58.394 E2.13185

G1 F1151.28
G1 X104.690 Y59.105 E2.14673
G1 X105.183 Y59.142 E2.15694
G1 X105.335 Y58.720 E2.16618
G1 X105.425 Y58.561 E2.16995
G1 X105.470 Y59.194 E2.18303
G1 X105.452 Y59.433 E2.18797
G1 X105.263 Y60.214 E2.20454
G1 X105.176 Y60.874 E2.21827

G1 F3600
G1 X105.136 Y61.177 E2.22675
G1 X105.089 Y61.284 E2.22998
G1 X105.028 Y61.348 E2.23243
G1 X104.840 Y61.438 E2.23824
G1 X104.623 Y61.459 E2.24429
G1 X104.557 Y61.445 E2.24618
G1 X104.514 Y61.409 E2.24774
G1 X104.456 Y61.245 E2.25257
G1 X104.129 Y61.254 E2.26166
G1 X104.071 Y61.279 E2.26342
G1 X103.995 Y61.256 E2.26562
G1 X103.862 Y61.165 E2.27010
G1 X103.491 Y60.832 E2.28395

G1 F1151.28
G1 X103.265 Y60.660 E2.28981
G1 X102.961 Y60.485 E2.29704
G1 X102.789 Y60.411 E2.30090
G1 X102.562 Y60.270 E2.30640
G1 X102.376 Y60.104 E2.31154
G1 X102.109 Y59.781 E2.32017
G1 X102.313 Y59.643 E2.32526
G1 X102.815 Y59.950 E2.33739
G1 X103.109 Y60.041 E2.34373
