; generated by Slic3r 1.3.0 on 2024-02-07 at 21:35:43

; external perimeters extrusion width = 0.55mm (7.28mm^3/s)
; perimeters extrusion width = 0.70mm (11.44mm^3/s)
; infill extrusion width = 0.63mm (13.45mm^3/s)
; solid infill extrusion width = 0.70mm (3.81mm^3/s)
; top infill extrusion width = 0.70mm (2.86mm^3/s)

M107
M104 S200 ; set temperature
G28 ; home all axes
G1 Z5 F5000 ; lift nozzle

; Filament gcode

M109 S200 ; set temperature and wait for it to be reached
G21 ; set units to millimeters
G90 ; use absolute coordinates
M82 ; use absolute distances for extrusion
G92 E0
G1 Z0.350 F7800.000
G1 E-2.00000 F2400.00000
G92 E0
G1 X94.849 Y94.747 F7800.000
G1 E2.00000 F2400.00000
G1 F600
G1 X95.284 Y94.354 E2.01627
G1 X95.763 Y93.985 E2.03308
G1 X96.342 Y93.618 E2.05211
G1 X96.925 Y93.316 E2.07033
G1 X97.312 Y93.152 E2.08201
G1 X98.014 Y92.918 E2.10258
G1 X98.774 Y92.747 E2.12421
G1 X99.575 Y92.656 E2.14660
G1 X100.306 Y92.651 E2.16693
G1 X101.108 Y92.728 E2.18931
G1 X101.871 Y92.886 E2.21094
G1 X102.577 Y93.110 E2.23151
G1 X102.967 Y93.268 E2.24321
G1 X103.554 Y93.560 E2.26141
G1 X104.171 Y93.939 E2.28152
G1 X104.624 Y94.278 E2.29725
G1 X105.022 Y94.623 E2.31187
G1 X105.468 Y95.078 E2.32958
G1 X105.828 Y95.509 E2.34517
G1 X106.254 Y96.124 E2.36595
G1 X106.601 Y96.745 E2.38571
G1 X106.741 Y97.047 E2.39495
G1 X107.018 Y97.784 E2.41684
G1 X107.249 Y98.725 E2.44375
G1 X107.351 Y99.618 E2.46871
G1 X107.349 Y100.426 E2.49115
G1 X107.248 Y101.295 E2.51545
G1 X107.054 Y102.115 E2.53887
G1 X106.781 Y102.879 E2.56141
G1 X106.640 Y103.193 E2.57097
G1 X106.265 Y103.880 E2.59271
G1 X105.820 Y104.526 E2.61448
G1 X105.453 Y104.961 E2.63029
G1 X105.027 Y105.396 E2.64722
G1 X104.515 Y105.830 E2.66584
G1 X104.107 Y106.127 E2.67988
G1 X103.623 Y106.423 E2.69564
G1 X102.963 Y106.754 E2.71616
G1 X102.225 Y107.034 E2.73808
G1 X101.899 Y107.128 E2.74750
G1 X101.167 Y107.283 E2.76829
G1 X100.401 Y107.365 E2.78968
G1 X99.708 Y107.370 E2.80892
G1 X98.942 Y107.300 E2.83030
G1 X98.210 Y107.156 E2.85101
G1 X97.889 Y107.069 E2.86025
G1 X97.143 Y106.800 E2.88228
G1 X96.569 Y106.528 E2.89994
G1 X95.987 Y106.190 E2.91862
G1 X95.487 Y105.831 E2.93573
G1 X95.084 Y105.497 E2.95025
G1 X94.627 Y105.048 E2.96807
G1 X94.253 Y104.618 E2.98388
G1 X93.799 Y103.981 E3.00563
G1 X93.412 Y103.300 E3.02738
G1 X93.266 Y102.989 E3.03693
G1 X93.012 Y102.326 E3.05663
G1 X92.774 Y101.412 E3.08289
G1 X92.658 Y100.544 E3.10719
G1 X92.643 Y99.737 E3.12962
G1 X92.747 Y98.746 E3.15729
G1 X92.947 Y97.898 E3.18150
G1 X93.212 Y97.156 E3.20339
G1 X93.347 Y96.853 E3.21261
G1 X93.741 Y96.132 E3.23542
G1 X94.124 Y95.571 E3.25427
G1 X94.453 Y95.167 E3.26875
G1 X94.798 Y94.801 E3.28273
G1 E1.28273 F2400.00000
G92 E0
G1 X100.487 Y100.212 F7800.000
G1 E2.00000 F2400.00000
G1 F1800
G1 X100.341 Y100.415 E2.00589
G1 X100.174 Y100.511 E2.01041
G1 X100.061 Y100.536 E2.01313
G1 X99.834 Y100.513 E2.01851
G1 X99.720 Y100.460 E2.02146
G1 X99.590 Y100.342 E2.02558
G1 X99.525 Y100.237 E2.02849
G1 X99.497 Y100.158 E2.03045
G1 X99.480 Y99.944 E2.03550
G1 X99.508 Y99.820 E2.03851
G1 X99.586 Y99.683 E2.04220
G1 X99.703 Y99.573 E2.04598
G1 X99.828 Y99.510 E2.04926
G1 X99.941 Y99.484 E2.05200
G1 X100.104 Y99.491 E2.05583
G1 X100.299 Y99.575 E2.06083
G1 X100.461 Y99.755 E2.06651
G1 X100.506 Y99.874 E2.06952
G1 X100.519 Y100.081 E2.07439
G1 X100.504 Y100.139 E2.07579
G1 X100.440 Y100.222 F7800.000
G1 Z0.650 F7800.000
G1 X100.441 Y100.130 F7800.000
G1 F600
G1 X100.372 Y100.276 E2.08015
G1 X100.234 Y100.406 E2.08527
G1 X100.068 Y100.466 E2.09003
G1 X99.936 Y100.467 E2.09358
G1 X99.770 Y100.409 E2.09834
G1 X99.632 Y100.282 E2.10339
G1 X99.561 Y100.137 E2.10775
G1 X99.545 Y99.963 E2.11247
G1 X99.574 Y99.848 E2.11565
G1 X99.669 Y99.691 E2.12062
G1 X99.808 Y99.592 E2.12523
G1 X99.999 Y99.548 E2.13051
G1 X100.174 Y99.583 E2.13532
G1 X100.325 Y99.686 E2.14025
G1 X100.423 Y99.842 E2.14521
G1 X100.454 Y99.955 E2.14839
G1 X100.449 Y100.055 E2.15109
G1 X100.978 Y100.292 F7800.000
G1 F600
G1 X100.950 Y100.384 E2.15309
G1 X100.838 Y100.595 E2.15800
G1 X100.701 Y100.753 E2.16231
G1 X100.535 Y100.882 E2.16664
G1 X100.379 Y100.961 E2.17026
G1 X100.169 Y101.020 E2.17474
G1 X100.006 Y101.035 E2.17813
G1 X99.841 Y101.022 E2.18152
G1 X99.635 Y100.967 E2.18593
G1 X99.475 Y100.888 E2.18959
G1 X99.310 Y100.764 E2.19385
G1 X99.171 Y100.608 E2.19816
G1 X99.056 Y100.400 E2.20306
G1 X99.011 Y100.259 E2.20611
G1 X98.980 Y100.016 E2.21115
G1 X98.989 Y99.875 E2.21406
G1 X99.047 Y99.648 E2.21889
G1 X99.160 Y99.429 E2.22397
G1 X99.267 Y99.297 E2.22747
G1 X99.421 Y99.166 E2.23164
G1 X99.587 Y99.073 E2.23557
G1 X99.830 Y98.999 E2.24079
G1 X100.008 Y98.984 E2.24448
G1 X100.216 Y99.008 E2.24880
G1 X100.394 Y99.064 E2.25265
G1 X100.565 Y99.157 E2.25666
G1 X100.721 Y99.286 E2.26083
G1 X100.831 Y99.416 E2.26433
G1 X100.947 Y99.633 E2.26941
G1 X101.009 Y99.859 E2.27424
G1 X101.020 Y100.000 E2.27715
G1 X100.995 Y100.219 E2.28170
G1 X100.885 Y100.321 F7800.000
G1 Z0.950 F7800.000
G1 X100.082 Y100.040 F7800.000
G1 F600
G1 X100.053 Y100.080 E2.28303
G1 X99.988 Y100.096 E2.28485
G1 X99.938 Y100.071 E2.28635
G1 X99.915 Y100.025 E2.28775
G1 X99.929 Y99.957 E2.28962
G1 X99.979 Y99.920 E2.29130
G1 X100.034 Y99.924 E2.29278
G1 X100.076 Y99.967 E2.29440
G1 X100.712 Y100.145 F7800.000
G1 F600
G1 X100.676 Y100.275 E2.29804
G1 X100.612 Y100.401 E2.30185
G1 X100.423 Y100.603 E2.30930
G1 X100.279 Y100.681 E2.31373
G1 X100.139 Y100.722 E2.31766
G1 X99.970 Y100.735 E2.32224
G1 X99.850 Y100.720 E2.32550
G1 X99.680 Y100.662 E2.33035
G1 X99.577 Y100.602 E2.33356
G1 X99.462 Y100.498 E2.33775
G1 X99.368 Y100.369 E2.34205
G1 X99.313 Y100.245 E2.34570
G1 X99.282 Y100.110 E2.34943
G1 X99.276 Y99.971 E2.35320
G1 X99.295 Y99.840 E2.35677
G1 X99.338 Y99.712 E2.36041
G1 X99.407 Y99.590 E2.36419
G1 X99.509 Y99.471 E2.36842
G1 X99.602 Y99.398 E2.37161
G1 X99.752 Y99.323 E2.37615
G1 X100.008 Y99.277 E2.38314
G1 X100.151 Y99.294 E2.38703
G1 X100.291 Y99.339 E2.39101
G1 X100.391 Y99.394 E2.39410
G1 X100.525 Y99.506 E2.39880
G1 X100.612 Y99.619 E2.40265
G1 X100.675 Y99.743 E2.40640
G1 X100.712 Y99.872 E2.41001
G1 X100.719 Y100.070 E2.41537
G1 X101.252 Y100.297 F7800.000
G1 F600
G1 X101.200 Y100.481 E2.41931
G1 X101.084 Y100.708 E2.42458
G1 X100.900 Y100.935 E2.43060
G1 X100.739 Y101.069 E2.43492
G1 X100.493 Y101.202 E2.44068
G1 X100.240 Y101.276 E2.44611
G1 X99.958 Y101.298 E2.45195
G1 X99.725 Y101.270 E2.45678
G1 X99.445 Y101.175 E2.46287
G1 X99.244 Y101.057 E2.46769
G1 X99.042 Y100.874 E2.47330
G1 X98.880 Y100.650 E2.47899
G1 X98.779 Y100.424 E2.48410
G1 X98.724 Y100.186 E2.48913
G1 X98.714 Y99.944 E2.49413
G1 X98.747 Y99.709 E2.49900
G1 X98.824 Y99.482 E2.50395
G1 X98.946 Y99.266 E2.50907
G1 X99.120 Y99.064 E2.51457
G1 X99.300 Y98.923 E2.51927
G1 X99.552 Y98.796 E2.52510
G1 X99.807 Y98.728 E2.53054
G1 X100.022 Y98.714 E2.53498
G1 X100.271 Y98.743 E2.54014
G1 X100.514 Y98.822 E2.54540
G1 X100.710 Y98.929 E2.55000
G1 X100.931 Y99.116 E2.55598
G1 X101.089 Y99.319 E2.56127
G1 X101.199 Y99.538 E2.56632
G1 X101.265 Y99.766 E2.57123
G1 X101.288 Y100.003 E2.57613
G1 X101.268 Y100.224 E2.58070
G1 X101.072 Y100.359 F7800.000
M106 S255
G1 Z1.250 F7800.000
G1 X100.264 Y99.986 F7800.000
G1 F600
G1 X100.247 Y100.111 E2.58409
G1 X100.189 Y100.197 E2.58687
G1 X100.113 Y100.250 E2.58938
G1 X100.024 Y100.278 E2.59190
G1 X99.971 Y100.278 E2.59332
G1 X99.862 Y100.238 E2.59645
G1 X99.791 Y100.174 E2.59904
G1 X99.745 Y100.082 E2.60182
G1 X99.737 Y99.975 E2.60470
G1 X99.764 Y99.894 E2.60702
G1 X99.824 Y99.806 E2.60989
G1 X99.918 Y99.747 E2.61288
G1 X100.008 Y99.728 E2.61535
G1 X100.086 Y99.750 E2.61754
G1 X100.186 Y99.816 E2.62078
G1 X100.244 Y99.914 E2.62386
G1 X100.878 Y100.221 F7800.000
G1 F600
G1 X100.837 Y100.354 E2.62759
G1 X100.764 Y100.494 E2.63185
G1 X100.647 Y100.643 E2.63697
G1 X100.505 Y100.760 E2.64194
G1 X100.361 Y100.838 E2.64635
G1 X100.145 Y100.906 E2.65246
G1 X99.980 Y100.919 E2.65693
G1 X99.838 Y100.903 E2.66077
G1 X99.641 Y100.840 E2.66637
G1 X99.508 Y100.769 E2.67042
G1 X99.350 Y100.640 E2.67593
G1 X99.253 Y100.518 E2.68013
G1 X99.147 Y100.308 E2.68647
G1 X99.114 Y100.185 E2.68991
G1 X99.099 Y99.957 E2.69609
G1 X99.115 Y99.832 E2.69948
G1 X99.181 Y99.629 E2.70524
G1 X99.284 Y99.456 E2.71066
G1 X99.393 Y99.336 E2.71504
G1 X99.532 Y99.230 E2.71975
G1 X99.682 Y99.155 E2.72429
G1 X99.850 Y99.104 E2.72904
G1 X100.016 Y99.088 E2.73352
G1 X100.152 Y99.105 E2.73722
G1 X100.337 Y99.163 E2.74245
G1 X100.511 Y99.259 E2.74780
G1 X100.637 Y99.364 E2.75224
G1 X100.730 Y99.475 E2.75614
G1 X100.833 Y99.664 E2.76195
G1 X100.891 Y99.866 E2.76763
G1 X100.902 Y99.993 E2.77105
G1 X100.886 Y100.147 E2.77523
G1 X101.413 Y100.388 F7800.000
G1 F600
G1 X101.357 Y100.568 E2.77912
G1 X101.237 Y100.799 E2.78449
G1 X101.050 Y101.036 E2.79072
G1 X100.821 Y101.227 E2.79686
G1 X100.580 Y101.357 E2.80250
G1 X100.252 Y101.460 E2.80960
G1 X99.971 Y101.482 E2.81540
G1 X99.721 Y101.454 E2.82058
G1 X99.422 Y101.359 E2.82706
G1 X99.195 Y101.238 E2.83234
G1 X98.949 Y101.037 E2.83890
G1 X98.778 Y100.822 E2.84455
G1 X98.620 Y100.508 E2.85180
G1 X98.559 Y100.277 E2.85673
G1 X98.536 Y99.940 E2.86369
G1 X98.565 Y99.708 E2.86852
G1 X98.668 Y99.396 E2.87528
G1 X98.830 Y99.122 E2.88184
G1 X99.012 Y98.921 E2.88743
G1 X99.234 Y98.753 E2.89317
G1 X99.474 Y98.632 E2.89871
G1 X99.742 Y98.551 E2.90449
G1 X100.023 Y98.525 E2.91030
G1 X100.271 Y98.554 E2.91545
G1 X100.559 Y98.645 E2.92167
G1 X100.828 Y98.794 E2.92801
G1 X101.035 Y98.966 E2.93355
G1 X101.196 Y99.158 E2.93871
G1 X101.355 Y99.450 E2.94557
G1 X101.445 Y99.764 E2.95230
G1 X101.466 Y99.998 E2.95714
G1 X101.432 Y100.315 E2.96372
G1 X101.234 Y100.444 F7800.000
G1 Z1.550 F7800.000
G1 X100.378 Y99.987 F7800.000
G1 F600
G1 X100.361 Y100.126 E2.96749
G1 X100.281 Y100.266 E2.97185
G1 X100.127 Y100.370 E2.97684
G1 X100.051 Y100.393 E2.97898
G1 X99.911 Y100.387 E2.98277
G1 X99.782 Y100.320 E2.98669
G1 X99.699 Y100.242 E2.98978
G1 X99.630 Y100.078 E2.99457
G1 X99.636 Y99.914 E2.99899
G1 X99.701 Y99.773 E3.00318
G1 X99.829 Y99.663 E3.00773
G1 X99.976 Y99.591 E3.01216
G1 X100.068 Y99.607 E3.01467
G1 X100.265 Y99.737 E3.02102
G1 X100.315 Y99.800 E3.02320
G1 X100.362 Y99.914 E3.02653
G1 X101.011 Y99.936 F7800.000
G1 F600
G1 X100.992 Y100.232 E3.03456
G1 X100.955 Y100.362 E3.03819
G1 X100.841 Y100.583 E3.04489
G1 X100.740 Y100.711 E3.04930
G1 X100.585 Y100.842 E3.05476
G1 X100.378 Y100.958 E3.06117
G1 X100.170 Y101.021 E3.06704
G1 X99.976 Y101.036 E3.07229
G1 X99.771 Y101.010 E3.07785
G1 X99.643 Y100.968 E3.08148
G1 X99.424 Y100.849 E3.08821
G1 X99.270 Y100.721 E3.09361
G1 X99.167 Y100.596 E3.09799
G1 X99.056 Y100.388 E3.10435
G1 X99.000 Y100.184 E3.11006
G1 X98.986 Y99.966 E3.11595
G1 X99.016 Y99.759 E3.12159
G1 X99.089 Y99.558 E3.12737
G1 X99.187 Y99.395 E3.13249
G1 X99.302 Y99.265 E3.13718
G1 X99.494 Y99.119 E3.14368
G1 X99.791 Y98.975 E3.15258
G1 X99.852 Y98.962 E3.15428
G1 X100.006 Y98.953 E3.15844
G1 X100.200 Y98.975 E3.16370
G1 X100.539 Y99.140 E3.17387
G1 X100.719 Y99.288 E3.18016
G1 X100.853 Y99.455 E3.18593
G1 X100.948 Y99.643 E3.19162
G1 X101.005 Y99.861 E3.19769
G1 X101.570 Y99.890 F7800.000
G1 F600
G1 X101.579 Y99.997 E3.19991
G1 X101.545 Y100.338 E3.20697
G1 X101.479 Y100.570 E3.21193
G1 X101.315 Y100.888 E3.21932
G1 X101.144 Y101.103 E3.22497
G1 X100.907 Y101.304 E3.23138
G1 X100.599 Y101.477 E3.23866
G1 X100.274 Y101.575 E3.24566
G1 X99.962 Y101.600 E3.25210
G1 X99.648 Y101.560 E3.25863
G1 X99.420 Y101.485 E3.26357
G1 X99.108 Y101.315 E3.27088
G1 X98.871 Y101.119 E3.27724
G1 X98.699 Y100.908 E3.28284
G1 X98.532 Y100.597 E3.29012
G1 X98.444 Y100.277 E3.29695
G1 X98.423 Y99.944 E3.30384
G1 X98.469 Y99.622 E3.31054
G1 X98.581 Y99.315 E3.31728
G1 X98.734 Y99.062 E3.32337
G1 X98.919 Y98.852 E3.32914
G1 X99.199 Y98.640 E3.33639
G1 X99.607 Y98.440 E3.34574
G1 X99.779 Y98.404 E3.34935
G1 X100.022 Y98.391 E3.35439
G1 X100.340 Y98.426 E3.36097
G1 X100.582 Y98.525 E3.36636
G1 X100.854 Y98.673 E3.37273
G1 X101.121 Y98.892 E3.37985
G1 X101.327 Y99.151 E3.38667
G1 X101.475 Y99.442 E3.39341
G1 X101.564 Y99.815 E3.40132
G1 X101.484 Y99.955 F7800.000
G1 Z1.850 F7800.000
G1 X100.428 Y100.101 F7800.000
G1 F600
G1 X100.347 Y100.282 E3.40666
G1 X100.236 Y100.382 E3.41069
G1 X100.081 Y100.454 E3.41532
G1 X99.891 Y100.445 E3.42046
G1 X99.767 Y100.385 E3.42415
G1 X99.657 Y100.287 E3.42813
G1 X99.574 Y100.108 E3.43346
G1 X99.571 Y99.924 E3.43842
G1 X99.638 Y99.760 E3.44319
G1 X99.787 Y99.614 E3.44883
G1 X99.903 Y99.546 E3.45246
G1 X100.077 Y99.540 E3.45717
G1 X100.207 Y99.610 E3.46113
G1 X100.358 Y99.754 E3.46678
G1 X100.427 Y99.917 E3.47154
G1 X100.435 Y100.026 E3.47448
G1 X101.035 Y100.288 F7800.000
G1 F600
G1 X100.990 Y100.433 E3.47859
G1 X100.871 Y100.646 E3.48518
G1 X100.762 Y100.774 E3.48971
G1 X100.595 Y100.910 E3.49552
G1 X100.408 Y101.015 E3.50131
G1 X100.235 Y101.073 E3.50623
G1 X100.011 Y101.097 E3.51229
G1 X99.756 Y101.069 E3.51923
G1 X99.602 Y101.019 E3.52361
G1 X99.415 Y100.917 E3.52935
G1 X99.248 Y100.785 E3.53509
G1 X99.138 Y100.659 E3.53958
G1 X99.017 Y100.449 E3.54613
G1 X98.949 Y100.243 E3.55199
G1 X98.925 Y100.020 E3.55803
G1 X98.944 Y99.805 E3.56386
G1 X99.005 Y99.599 E3.56966
G1 X99.104 Y99.409 E3.57546
G1 X99.241 Y99.241 E3.58129
G1 X99.421 Y99.091 E3.58760
G1 X99.663 Y98.949 E3.59517
G1 X99.821 Y98.911 E3.59957
G1 X100.171 Y98.910 E3.60899
G1 X100.319 Y98.943 E3.61309
G1 X100.564 Y99.082 E3.62069
G1 X100.747 Y99.229 E3.62701
G1 X100.886 Y99.394 E3.63284
G1 X100.989 Y99.583 E3.63863
G1 X101.053 Y99.788 E3.64443
G1 X101.075 Y100.003 E3.65027
G1 X101.055 Y100.216 E3.65603
G1 X101.571 Y100.453 F7800.000
G1 F600
G1 X101.509 Y100.655 E3.66038
G1 X101.334 Y100.968 E3.66778
G1 X101.155 Y101.177 E3.67345
G1 X100.911 Y101.375 E3.67992
G1 X100.637 Y101.529 E3.68641
G1 X100.370 Y101.619 E3.69220
G1 X99.995 Y101.660 E3.69998
G1 X99.637 Y101.620 E3.70741
G1 X99.378 Y101.536 E3.71303
G1 X99.104 Y101.385 E3.71946
G1 X98.860 Y101.193 E3.72587
G1 X98.680 Y100.988 E3.73149
G1 X98.502 Y100.679 E3.73884
G1 X98.399 Y100.362 E3.74572
G1 X98.361 Y100.027 E3.75266
G1 X98.390 Y99.700 E3.75942
G1 X98.482 Y99.387 E3.76615
G1 X98.634 Y99.098 E3.77287
G1 X98.840 Y98.844 E3.77961
G1 X99.098 Y98.631 E3.78651
G1 X99.451 Y98.424 E3.79494
G1 X99.735 Y98.356 E3.80097
G1 X100.007 Y98.336 E3.80658
G1 X100.253 Y98.354 E3.81167
G1 X100.523 Y98.415 E3.81737
G1 X100.880 Y98.617 E3.82582
G1 X101.141 Y98.826 E3.83271
G1 X101.351 Y99.076 E3.83946
G1 X101.507 Y99.363 E3.84618
G1 X101.605 Y99.674 E3.85290
G1 X101.639 Y100.000 E3.85966
G1 X101.593 Y100.381 E3.86757
G1 X101.367 Y100.510 F7800.000
G1 Z2.150 F7800.000
G1 X100.440 Y100.103 F7800.000
G1 F600
G1 X100.358 Y100.288 E3.87303
G1 X100.231 Y100.404 E3.87768
G1 X100.097 Y100.461 E3.88160
G1 X99.906 Y100.462 E3.88675
G1 X99.773 Y100.406 E3.89064
G1 X99.646 Y100.293 E3.89524
G1 X99.561 Y100.110 E3.90069
G1 X99.559 Y99.922 E3.90575
G1 X99.626 Y99.755 E3.91063
G1 X99.778 Y99.604 E3.91639
G1 X99.892 Y99.535 E3.91999
G1 X100.100 Y99.532 E3.92560
G1 X100.216 Y99.600 E3.92922
G1 X100.370 Y99.749 E3.93499
G1 X100.440 Y99.915 E3.93986
G1 X100.447 Y100.028 E3.94291
G1 X101.048 Y100.288 F7800.000
G1 F600
G1 X101.003 Y100.435 E3.94705
G1 X100.884 Y100.650 E3.95367
G1 X100.776 Y100.778 E3.95820
G1 X100.601 Y100.922 E3.96430
G1 X100.387 Y101.039 E3.97089
G1 X100.223 Y101.087 E3.97550
G1 X100.004 Y101.112 E3.98144
G1 X99.786 Y101.089 E3.98736
G1 X99.622 Y101.043 E3.99195
G1 X99.409 Y100.929 E3.99848
G1 X99.234 Y100.789 E4.00452
G1 X99.125 Y100.663 E4.00900
G1 X99.004 Y100.451 E4.01558
